X:790
T:Peter Bailie
R:Strathspey
B:The Athole Collection
M:C
L:1/8
K:E Minor
e|B<E B>A B<E B>A|F>AD>A d>A B/A/G/F/|B<E B>A B<E B>A|
(3Bcd (3FGA B<EE:|
f|g>fe>b g<e b>g|a>fd>a f<d a>f|~g>fe>b g<e b>g|a>fd>f g<e e>f|
~g>fe>b g<e b>g|a>fd>a f<d a>f|(3gab (3efg (3fga (3def|
(3Bcd (3FGA B<EE||

